images/50325689.svg

<?xml version="1.0" encoding="UTF-8"?>
<svg xmlns="http://www.w3.org/2000/svg" xmlns:xlink="http://www.w3.org/1999/xlink" width="300pt" height="300pt" viewBox="0 0 300 300" version="1.1">
<defs>
<g>
<symbol overflow="visible" id="glyph0-0">
<path style="stroke:none;" d="M 0.453125 1.59375 L 0.453125 -6.34375 L 4.953125 -6.34375 L 4.953125 1.59375 Z M 0.953125 1.09375 L 4.453125 1.09375 L 4.453125 -5.84375 L 0.953125 -5.84375 Z M 0.953125 1.09375 "/>
</symbol>
<symbol overflow="visible" id="glyph0-1">
<path style="stroke:none;" d="M 0.890625 -6.5625 L 4.65625 -6.5625 L 4.65625 -5.8125 L 1.765625 -5.8125 L 1.765625 -3.875 L 4.375 -3.875 L 4.375 -3.140625 L 1.765625 -3.140625 L 1.765625 0 L 0.890625 0 Z M 0.890625 -6.5625 "/>
</symbol>
<symbol overflow="visible" id="glyph0-2">
<path style="stroke:none;" d="M 0.890625 -6.5625 L 2.078125 -6.5625 L 4.984375 -1.078125 L 4.984375 -6.5625 L 5.84375 -6.5625 L 5.84375 0 L 4.65625 0 L 1.75 -5.484375 L 1.75 0 L 0.890625 0 Z M 0.890625 -6.5625 "/>
</symbol>
<symbol overflow="visible" id="glyph0-3">
<path style="stroke:none;" d="M 0.890625 -6.5625 L 1.765625 -6.5625 L 1.765625 -3.875 L 5 -3.875 L 5 -6.5625 L 5.890625 -6.5625 L 5.890625 0 L 5 0 L 5 -3.125 L 1.765625 -3.125 L 1.765625 0 L 0.890625 0 Z M 0.890625 -6.5625 "/>
</symbol>
<symbol overflow="visible" id="glyph0-4">
<path style="stroke:none;" d="M 3.546875 -5.953125 C 2.898438 -5.953125 2.382812 -5.710938 2 -5.234375 C 1.625 -4.753906 1.4375 -4.101562 1.4375 -3.28125 C 1.4375 -2.445312 1.625 -1.789062 2 -1.3125 C 2.382812 -0.832031 2.898438 -0.59375 3.546875 -0.59375 C 4.191406 -0.59375 4.703125 -0.832031 5.078125 -1.3125 C 5.453125 -1.789062 5.640625 -2.445312 5.640625 -3.28125 C 5.640625 -4.101562 5.453125 -4.753906 5.078125 -5.234375 C 4.703125 -5.710938 4.191406 -5.953125 3.546875 -5.953125 Z M 3.546875 -6.6875 C 4.460938 -6.6875 5.195312 -6.375 5.75 -5.75 C 6.300781 -5.132812 6.578125 -4.3125 6.578125 -3.28125 C 6.578125 -2.238281 6.300781 -1.410156 5.75 -0.796875 C 5.195312 -0.179688 4.460938 0.125 3.546875 0.125 C 2.617188 0.125 1.878906 -0.179688 1.328125 -0.796875 C 0.773438 -1.410156 0.5 -2.238281 0.5 -3.28125 C 0.5 -4.3125 0.773438 -5.132812 1.328125 -5.75 C 1.878906 -6.375 2.617188 -6.6875 3.546875 -6.6875 Z M 3.546875 -6.6875 "/>
</symbol>
<symbol overflow="visible" id="glyph1-0">
<path style="stroke:none;" d="M 0.40625 1.421875 L 0.40625 -5.640625 L 4.40625 -5.640625 L 4.40625 1.421875 Z M 0.84375 0.96875 L 3.953125 0.96875 L 3.953125 -5.1875 L 0.84375 -5.1875 Z M 0.84375 0.96875 "/>
</symbol>
<symbol overflow="visible" id="glyph1-1">
<path style="stroke:none;" d="M 0.390625 -2.515625 L 2.5 -2.515625 L 2.5 -1.875 L 0.390625 -1.875 Z M 0.390625 -2.515625 "/>
</symbol>
</g>
</defs>
<g id="surface21769">
<rect x="0" y="0" width="300" height="300" style="fill:rgb(100%,100%,100%);fill-opacity:1;stroke:none;"/>
<path style="fill:none;stroke-width:1.2;stroke-linecap:butt;stroke-linejoin:miter;stroke:rgb(20%,80%,80%);stroke-opacity:1;stroke-miterlimit:10;" d="M 44.253906 177.226562 L 48.65625 167 "/>
<path style="fill:none;stroke-width:1.2;stroke-linecap:butt;stroke-linejoin:miter;stroke:rgb(0%,0%,0%);stroke-opacity:1;stroke-miterlimit:10;" d="M 48.65625 167 L 53.058594 156.777344 "/>
<path style=" stroke:none;fill-rule:nonzero;fill:rgb(100%,100%,100%);fill-opacity:1;" d="M 38.253906 171.726562 L 44.253906 171.726562 L 44.253906 182.726562 L 38.253906 182.726562 Z M 38.253906 171.726562 "/>
<g style="fill:rgb(20%,80%,80%);fill-opacity:1;">
  <use xlink:href="#glyph0-1" x="38.253906" y="180.389648"/>
</g>
<path style="fill:none;stroke-width:1.2;stroke-linecap:butt;stroke-linejoin:miter;stroke:rgb(0%,0%,0%);stroke-opacity:1;stroke-miterlimit:10;" d="M 53.058594 156.777344 L 39.75 138.921875 "/>
<path style="fill:none;stroke-width:1.2;stroke-linecap:butt;stroke-linejoin:miter;stroke:rgb(0%,0%,0%);stroke-opacity:1;stroke-miterlimit:10;" d="M 55.929688 151.859375 L 45.28125 137.578125 "/>
<path style="fill:none;stroke-width:1.2;stroke-linecap:butt;stroke-linejoin:miter;stroke:rgb(0%,0%,0%);stroke-opacity:1;stroke-miterlimit:10;" d="M 75.171875 154.175781 L 53.058594 156.777344 "/>
<path style="fill:none;stroke-width:1.2;stroke-linecap:butt;stroke-linejoin:miter;stroke:rgb(0%,0%,0%);stroke-opacity:1;stroke-miterlimit:10;" d="M 39.75 138.921875 L 48.558594 118.472656 "/>
<path style="fill:none;stroke-width:1.2;stroke-linecap:butt;stroke-linejoin:miter;stroke:rgb(0%,0%,0%);stroke-opacity:1;stroke-miterlimit:10;" d="M 48.558594 118.472656 L 41.902344 109.546875 "/>
<path style="fill:none;stroke-width:1.2;stroke-linecap:butt;stroke-linejoin:miter;stroke:rgb(20%,80%,80%);stroke-opacity:1;stroke-miterlimit:10;" d="M 41.902344 109.546875 L 35.25 100.621094 "/>
<path style="fill:none;stroke-width:1.2;stroke-linecap:butt;stroke-linejoin:miter;stroke:rgb(0%,0%,0%);stroke-opacity:1;stroke-miterlimit:10;" d="M 48.558594 118.472656 L 70.671875 115.875 "/>
<path style="fill:none;stroke-width:1.2;stroke-linecap:butt;stroke-linejoin:miter;stroke:rgb(0%,0%,0%);stroke-opacity:1;stroke-miterlimit:10;" d="M 51.378906 123.417969 L 69.070312 121.335938 "/>
<path style=" stroke:none;fill-rule:nonzero;fill:rgb(100%,100%,100%);fill-opacity:1;" d="M 29.25 95.121094 L 35.25 95.121094 L 35.25 106.121094 L 29.25 106.121094 Z M 29.25 95.121094 "/>
<g style="fill:rgb(20%,80%,80%);fill-opacity:1;">
  <use xlink:href="#glyph0-1" x="29.25" y="103.78418"/>
</g>
<path style="fill:none;stroke-width:1.2;stroke-linecap:butt;stroke-linejoin:miter;stroke:rgb(0%,0%,0%);stroke-opacity:1;stroke-miterlimit:10;" d="M 70.671875 115.875 L 83.980469 133.726562 "/>
<path style="fill:none;stroke-width:1.2;stroke-linecap:butt;stroke-linejoin:miter;stroke:rgb(0%,0%,0%);stroke-opacity:1;stroke-miterlimit:10;" d="M 83.980469 133.726562 L 75.171875 154.175781 "/>
<path style="fill:none;stroke-width:1.2;stroke-linecap:butt;stroke-linejoin:miter;stroke:rgb(0%,0%,0%);stroke-opacity:1;stroke-miterlimit:10;" d="M 78.285156 133.699219 L 71.242188 150.058594 "/>
<path style="fill:none;stroke-width:1.2;stroke-linecap:butt;stroke-linejoin:miter;stroke:rgb(0%,0%,0%);stroke-opacity:1;stroke-miterlimit:10;" d="M 75.171875 154.175781 L 81.828125 163.101562 "/>
<path style="fill:none;stroke-width:1.2;stroke-linecap:butt;stroke-linejoin:miter;stroke:rgb(0%,0%,100%);stroke-opacity:1;stroke-miterlimit:10;" d="M 81.828125 163.101562 L 88.480469 172.03125 "/>
<path style="fill:none;stroke-width:1.2;stroke-linecap:butt;stroke-linejoin:miter;stroke:rgb(0%,0%,100%);stroke-opacity:1;stroke-miterlimit:10;" d="M 88.480469 172.03125 L 99.539062 170.730469 "/>
<path style="fill:none;stroke-width:1.2;stroke-linecap:butt;stroke-linejoin:miter;stroke:rgb(0%,0%,0%);stroke-opacity:1;stroke-miterlimit:10;" d="M 99.539062 170.730469 L 110.59375 169.429688 "/>
<path style=" stroke:none;fill-rule:nonzero;fill:rgb(100%,100%,100%);fill-opacity:1;" d="M 81.480469 166.53125 L 95.480469 166.53125 L 95.480469 177.53125 L 81.480469 177.53125 Z M 81.480469 166.53125 "/>
<g style="fill:rgb(0%,0%,100%);fill-opacity:1;">
  <use xlink:href="#glyph0-2" x="81.480469" y="175.194336"/>
  <use xlink:href="#glyph0-3" x="88.458008" y="175.194336"/>
</g>
<path style="fill:none;stroke-width:1.2;stroke-linecap:butt;stroke-linejoin:miter;stroke:rgb(0%,0%,0%);stroke-opacity:1;stroke-miterlimit:10;" d="M 110.59375 169.429688 L 117.25 178.355469 "/>
<path style="fill:none;stroke-width:1.2;stroke-linecap:butt;stroke-linejoin:miter;stroke:rgb(0%,0%,100%);stroke-opacity:1;stroke-miterlimit:10;" d="M 117.25 178.355469 L 123.902344 187.28125 "/>
<path style="fill:none;stroke-width:1.2;stroke-linecap:butt;stroke-linejoin:miter;stroke:rgb(0%,0%,0%);stroke-opacity:1;stroke-miterlimit:10;" d="M 116.125 168.085938 L 121.449219 175.226562 "/>
<path style="fill:none;stroke-width:1.2;stroke-linecap:butt;stroke-linejoin:miter;stroke:rgb(0%,0%,100%);stroke-opacity:1;stroke-miterlimit:10;" d="M 121.449219 175.226562 L 126.773438 182.367188 "/>
<path style="fill:none;stroke-width:1.2;stroke-linecap:butt;stroke-linejoin:miter;stroke:rgb(0%,0%,0%);stroke-opacity:1;stroke-miterlimit:10;" d="M 119.402344 148.980469 L 110.59375 169.429688 "/>
<path style="fill:none;stroke-width:1.2;stroke-linecap:butt;stroke-linejoin:miter;stroke:rgb(0%,0%,100%);stroke-opacity:1;stroke-miterlimit:10;" d="M 123.902344 187.28125 L 134.960938 185.984375 "/>
<path style="fill:none;stroke-width:1.2;stroke-linecap:butt;stroke-linejoin:miter;stroke:rgb(0%,0%,0%);stroke-opacity:1;stroke-miterlimit:10;" d="M 134.960938 185.984375 L 146.015625 184.683594 "/>
<path style=" stroke:none;fill-rule:nonzero;fill:rgb(100%,100%,100%);fill-opacity:1;" d="M 120.902344 181.78125 L 127.902344 181.78125 L 127.902344 192.78125 L 120.902344 192.78125 Z M 120.902344 181.78125 "/>
<g style="fill:rgb(0%,0%,100%);fill-opacity:1;">
  <use xlink:href="#glyph0-2" x="120.902344" y="190.444336"/>
</g>
<path style="fill:none;stroke-width:1.2;stroke-linecap:butt;stroke-linejoin:miter;stroke:rgb(0%,0%,0%);stroke-opacity:1;stroke-miterlimit:10;" d="M 146.015625 184.683594 L 154.382812 192.03125 "/>
<path style="fill:none;stroke-width:1.2;stroke-linecap:butt;stroke-linejoin:miter;stroke:rgb(0%,0%,100%);stroke-opacity:1;stroke-miterlimit:10;" d="M 154.382812 192.03125 L 162.746094 199.378906 "/>
<path style="fill:none;stroke-width:1.2;stroke-linecap:butt;stroke-linejoin:miter;stroke:rgb(0%,0%,0%);stroke-opacity:1;stroke-miterlimit:10;" d="M 151.148438 182.21875 L 157.839844 188.09375 "/>
<path style="fill:none;stroke-width:1.2;stroke-linecap:butt;stroke-linejoin:miter;stroke:rgb(0%,0%,100%);stroke-opacity:1;stroke-miterlimit:10;" d="M 157.839844 188.09375 L 164.53125 193.972656 "/>
<path style="fill:none;stroke-width:1.2;stroke-linecap:butt;stroke-linejoin:miter;stroke:rgb(0%,0%,0%);stroke-opacity:1;stroke-miterlimit:10;" d="M 154.824219 164.234375 L 146.015625 184.683594 "/>
<path style="fill:none;stroke-width:1.2;stroke-linecap:butt;stroke-linejoin:miter;stroke:rgb(0%,0%,100%);stroke-opacity:1;stroke-miterlimit:10;" d="M 162.746094 199.378906 L 181.890625 188.011719 "/>
<path style=" stroke:none;fill-rule:nonzero;fill:rgb(100%,100%,100%);fill-opacity:1;" d="M 159.746094 193.878906 L 166.746094 193.878906 L 166.746094 204.878906 L 159.746094 204.878906 Z M 159.746094 193.878906 "/>
<g style="fill:rgb(0%,0%,100%);fill-opacity:1;">
  <use xlink:href="#glyph0-2" x="159.746094" y="202.541992"/>
</g>
<path style="fill:none;stroke-width:1.2;stroke-linecap:butt;stroke-linejoin:miter;stroke:rgb(0%,0%,100%);stroke-opacity:1;stroke-miterlimit:10;" d="M 181.890625 188.011719 L 179.441406 177.148438 "/>
<path style="fill:none;stroke-width:1.2;stroke-linecap:butt;stroke-linejoin:miter;stroke:rgb(0%,0%,0%);stroke-opacity:1;stroke-miterlimit:10;" d="M 179.441406 177.148438 L 176.996094 166.289062 "/>
<path style=" stroke:none;fill-rule:nonzero;fill:rgb(100%,100%,100%);fill-opacity:1;" d="M 174.890625 182.511719 L 188.890625 182.511719 L 188.890625 193.511719 L 174.890625 193.511719 Z M 174.890625 182.511719 "/>
<g style="fill:rgb(0%,0%,100%);fill-opacity:1;">
  <use xlink:href="#glyph0-2" x="174.890625" y="191.174805"/>
  <use xlink:href="#glyph0-3" x="181.868164" y="191.174805"/>
</g>
<path style="fill:none;stroke-width:1.2;stroke-linecap:butt;stroke-linejoin:miter;stroke:rgb(0%,0%,0%);stroke-opacity:1;stroke-miterlimit:10;" d="M 176.996094 166.289062 L 154.824219 164.234375 "/>
<path style="fill:none;stroke-width:1.2;stroke-linecap:butt;stroke-linejoin:miter;stroke:rgb(0%,0%,0%);stroke-opacity:1;stroke-miterlimit:10;" d="M 174.292969 171.300781 L 156.558594 169.65625 "/>
<path style="fill:none;stroke-width:1.2;stroke-linecap:butt;stroke-linejoin:miter;stroke:rgb(0%,0%,0%);stroke-opacity:1;stroke-miterlimit:10;" d="M 176.996094 166.289062 L 191.691406 149.558594 "/>
<path style="fill:none;stroke-width:1.2;stroke-linecap:butt;stroke-linejoin:miter;stroke:rgb(0%,0%,0%);stroke-opacity:1;stroke-miterlimit:10;" d="M 154.824219 164.234375 L 141.515625 146.382812 "/>
<path style="fill:none;stroke-width:1.2;stroke-linecap:butt;stroke-linejoin:miter;stroke:rgb(0%,0%,0%);stroke-opacity:1;stroke-miterlimit:10;" d="M 141.515625 146.382812 L 119.402344 148.980469 "/>
<path style="fill:none;stroke-width:1.2;stroke-linecap:butt;stroke-linejoin:miter;stroke:rgb(0%,0%,0%);stroke-opacity:1;stroke-miterlimit:10;" d="M 139.914062 151.84375 L 122.222656 153.921875 "/>
<path style="fill:none;stroke-width:1.2;stroke-linecap:butt;stroke-linejoin:miter;stroke:rgb(0%,0%,0%);stroke-opacity:1;stroke-miterlimit:10;" d="M 191.691406 149.558594 L 213.523438 153.921875 "/>
<path style="fill:none;stroke-width:1.2;stroke-linecap:butt;stroke-linejoin:miter;stroke:rgb(0%,0%,0%);stroke-opacity:1;stroke-miterlimit:10;" d="M 194.898438 144.859375 L 212.367188 148.347656 "/>
<path style="fill:none;stroke-width:1.2;stroke-linecap:butt;stroke-linejoin:miter;stroke:rgb(0%,0%,0%);stroke-opacity:1;stroke-miterlimit:10;" d="M 184.550781 128.46875 L 191.691406 149.558594 "/>
<path style="fill:none;stroke-width:1.2;stroke-linecap:butt;stroke-linejoin:miter;stroke:rgb(0%,0%,0%);stroke-opacity:1;stroke-miterlimit:10;" d="M 213.523438 153.921875 L 228.21875 137.195312 "/>
<path style="fill:none;stroke-width:1.2;stroke-linecap:butt;stroke-linejoin:miter;stroke:rgb(0%,0%,0%);stroke-opacity:1;stroke-miterlimit:10;" d="M 228.21875 137.195312 L 221.082031 116.101562 "/>
<path style="fill:none;stroke-width:1.2;stroke-linecap:butt;stroke-linejoin:miter;stroke:rgb(0%,0%,0%);stroke-opacity:1;stroke-miterlimit:10;" d="M 222.542969 136.765625 L 216.832031 119.890625 "/>
<path style="fill:none;stroke-width:1.2;stroke-linecap:butt;stroke-linejoin:miter;stroke:rgb(0%,0%,0%);stroke-opacity:1;stroke-miterlimit:10;" d="M 228.21875 137.195312 L 250.054688 141.554688 "/>
<path style="fill:none;stroke-width:1.2;stroke-linecap:butt;stroke-linejoin:miter;stroke:rgb(0%,0%,0%);stroke-opacity:1;stroke-miterlimit:10;" d="M 221.082031 116.101562 L 199.246094 111.742188 "/>
<path style="fill:none;stroke-width:1.2;stroke-linecap:butt;stroke-linejoin:miter;stroke:rgb(0%,0%,0%);stroke-opacity:1;stroke-miterlimit:10;" d="M 199.246094 111.742188 L 184.550781 128.46875 "/>
<path style="fill:none;stroke-width:1.2;stroke-linecap:butt;stroke-linejoin:miter;stroke:rgb(0%,0%,0%);stroke-opacity:1;stroke-miterlimit:10;" d="M 201.710938 116.871094 L 189.957031 130.253906 "/>
<path style="fill:none;stroke-width:1.2;stroke-linecap:butt;stroke-linejoin:miter;stroke:rgb(0%,0%,0%);stroke-opacity:1;stroke-miterlimit:10;" d="M 184.550781 128.46875 L 173.632812 126.289062 "/>
<path style="fill:none;stroke-width:1.2;stroke-linecap:butt;stroke-linejoin:miter;stroke:rgb(100%,0%,0%);stroke-opacity:1;stroke-miterlimit:10;" d="M 173.632812 126.289062 L 162.714844 124.109375 "/>
<path style="fill:none;stroke-width:1.2;stroke-linecap:butt;stroke-linejoin:miter;stroke:rgb(100%,0%,0%);stroke-opacity:1;stroke-miterlimit:10;" d="M 162.714844 124.109375 L 159.144531 113.5625 "/>
<path style="fill:none;stroke-width:1.2;stroke-linecap:butt;stroke-linejoin:miter;stroke:rgb(0%,0%,0%);stroke-opacity:1;stroke-miterlimit:10;" d="M 159.144531 113.5625 L 155.574219 103.015625 "/>
<path style=" stroke:none;fill-rule:nonzero;fill:rgb(100%,100%,100%);fill-opacity:1;" d="M 158.714844 118.609375 L 166.714844 118.609375 L 166.714844 129.609375 L 158.714844 129.609375 Z M 158.714844 118.609375 "/>
<g style="fill:rgb(100%,0%,0%);fill-opacity:1;">
  <use xlink:href="#glyph0-4" x="158.714844" y="127.272461"/>
</g>
<path style="fill:none;stroke-width:1.2;stroke-linecap:butt;stroke-linejoin:miter;stroke:rgb(0%,0%,0%);stroke-opacity:1;stroke-miterlimit:10;" d="M 252.023438 143.285156 L 259.371094 134.921875 "/>
<path style="fill:none;stroke-width:1.2;stroke-linecap:butt;stroke-linejoin:miter;stroke:rgb(100%,0%,0%);stroke-opacity:1;stroke-miterlimit:10;" d="M 259.371094 134.921875 L 266.71875 126.554688 "/>
<path style="fill:none;stroke-width:1.2;stroke-linecap:butt;stroke-linejoin:miter;stroke:rgb(0%,0%,0%);stroke-opacity:1;stroke-miterlimit:10;" d="M 248.085938 139.828125 L 255.433594 131.464844 "/>
<path style="fill:none;stroke-width:1.2;stroke-linecap:butt;stroke-linejoin:miter;stroke:rgb(100%,0%,0%);stroke-opacity:1;stroke-miterlimit:10;" d="M 255.433594 131.464844 L 262.78125 123.097656 "/>
<path style="fill:none;stroke-width:1.2;stroke-linecap:butt;stroke-linejoin:miter;stroke:rgb(0%,0%,0%);stroke-opacity:1;stroke-miterlimit:10;" d="M 250.054688 141.554688 L 253.625 152.101562 "/>
<path style="fill:none;stroke-width:1.2;stroke-linecap:butt;stroke-linejoin:miter;stroke:rgb(100%,0%,0%);stroke-opacity:1;stroke-miterlimit:10;" d="M 253.625 152.101562 L 257.195312 162.648438 "/>
<path style=" stroke:none;fill-rule:nonzero;fill:rgb(100%,100%,100%);fill-opacity:1;" d="M 260.75 119.328125 L 268.75 119.328125 L 268.75 130.328125 L 260.75 130.328125 Z M 260.75 119.328125 "/>
<g style="fill:rgb(100%,0%,0%);fill-opacity:1;">
  <use xlink:href="#glyph0-4" x="260.75" y="127.991211"/>
</g>
<path style=" stroke:none;fill-rule:nonzero;fill:rgb(100%,100%,100%);fill-opacity:1;" d="M 252.195312 155.148438 L 263.195312 155.148438 L 263.195312 170.148438 L 252.195312 170.148438 Z M 252.195312 155.148438 "/>
<g style="fill:rgb(100%,0%,0%);fill-opacity:1;">
  <use xlink:href="#glyph0-4" x="252.195312" y="167.25"/>
</g>
<g style="fill:rgb(100%,0%,0%);fill-opacity:1;">
  <use xlink:href="#glyph1-1" x="259.537109" y="162.367188"/>
</g>
</g>
</svg>

<svg xmlns="http://www.w3.org/2000/svg" xmlns:xlink="http://www.w3.org/1999/xlink" width="300pt" height="300pt" viewBox="0 0 300 300"><defs><symbol overflow="visible"><path d="M.453 1.594v-7.938h4.5v7.938zm.5-.5h3.5v-6.938h-3.5zm0 0"/></symbol><symbol overflow="visible" id="a"><path d="M.89-6.563h3.766v.75h-2.89v1.938h2.61v.734h-2.61V0H.89zm0 0"/></symbol><symbol overflow="visible" id="b"><path d="M.89-6.563H2.08l2.906 5.485v-5.484h.86V0H4.656L1.75-5.484V0H.89zm0 0"/></symbol><symbol overflow="visible" id="c"><path d="M.89-6.563h.876v2.688H5v-2.688h.89V0H5v-3.125H1.766V0H.89zm0 0"/></symbol><symbol overflow="visible" id="d"><path d="M3.547-5.953c-.65 0-1.164.242-1.547.72-.375.48-.563 1.13-.563 1.952 0 .835.188 1.49.563 1.967.383.48.898.72 1.547.72.644 0 1.156-.24 1.53-.72.376-.476.564-1.132.564-1.968 0-.822-.187-1.474-.562-1.954-.375-.477-.887-.72-1.53-.72zm0-.734c.914 0 1.648.312 2.203.937.55.617.828 1.438.828 2.47 0 1.042-.277 1.87-.828 2.483-.555.617-1.29.922-2.203.922-.93 0-1.668-.305-2.22-.922C.774-1.41.5-2.237.5-3.28c0-1.033.273-1.853.828-2.47.55-.625 1.29-.938 2.22-.938zm0 0"/></symbol><symbol overflow="visible"><path d="M.406 1.422V-5.64h4V1.42zM.844.97h3.11v-6.157H.843zm0 0"/></symbol><symbol overflow="visible" id="e"><path d="M.39-2.516H2.5v.64H.39zm0 0"/></symbol></defs><g><path fill="#fff" d="M0 0h300v300H0z"/><path d="M44.254 177.227L48.656 167" stroke-width="1.2" stroke="#3cc" stroke-miterlimit="10" fill="none"/><path d="M48.656 167l4.403-10.223" stroke-width="1.2" stroke="#000" stroke-miterlimit="10" fill="none"/><path d="M38.254 171.727h6v11h-6zm0 0" fill="#fff"/><use xlink:href="#a" x="38.254" y="180.39" fill="#3cc"/><path d="M53.06 156.777l-13.31-17.855M55.93 151.86l-10.65-14.282M75.172 154.176l-22.113 2.6M39.75 138.922l8.81-20.45M48.56 118.473l-6.658-8.926" stroke-width="1.2" stroke="#000" stroke-miterlimit="10" fill="none"/><path d="M41.902 109.547l-6.652-8.926" stroke-width="1.2" stroke="#3cc" stroke-miterlimit="10" fill="none"/><path d="M48.56 118.473l22.112-2.598M51.38 123.418l17.69-2.082" stroke-width="1.2" stroke="#000" stroke-miterlimit="10" fill="none"/><path d="M29.25 95.12h6v11h-6zm0 0" fill="#fff"/><use xlink:href="#a" x="29.25" y="103.784" fill="#3cc"/><path d="M70.672 115.875l13.308 17.852M83.98 133.727l-8.808 20.45M78.285 133.7l-7.043 16.36M75.172 154.176l6.656 8.926" stroke-width="1.2" stroke="#000" stroke-miterlimit="10" fill="none"/><path d="M81.828 163.102l6.652 8.93M88.48 172.03l11.06-1.3" stroke-width="1.2" stroke="#00f" stroke-miterlimit="10" fill="none"/><path d="M99.54 170.73l11.054-1.3" stroke-width="1.2" stroke="#000" stroke-miterlimit="10" fill="none"/><path d="M81.48 166.53h14v11h-14zm0 0" fill="#fff"/><g fill="#00f"><use xlink:href="#b" x="81.48" y="175.194"/><use xlink:href="#c" x="88.458" y="175.194"/></g><path d="M110.594 169.43l6.656 8.925" stroke-width="1.2" stroke="#000" stroke-miterlimit="10" fill="none"/><path d="M117.25 178.355l6.652 8.926" stroke-width="1.2" stroke="#00f" stroke-miterlimit="10" fill="none"/><path d="M116.125 168.086l5.324 7.14" stroke-width="1.2" stroke="#000" stroke-miterlimit="10" fill="none"/><path d="M121.45 175.227l5.323 7.14" stroke-width="1.2" stroke="#00f" stroke-miterlimit="10" fill="none"/><path d="M119.402 148.98l-8.808 20.45" stroke-width="1.2" stroke="#000" stroke-miterlimit="10" fill="none"/><path d="M123.902 187.28l11.06-1.296" stroke-width="1.2" stroke="#00f" stroke-miterlimit="10" fill="none"/><path d="M134.96 185.984l11.056-1.3" stroke-width="1.2" stroke="#000" stroke-miterlimit="10" fill="none"/><path d="M120.902 181.78h7v11h-7zm0 0" fill="#fff"/><use xlink:href="#b" x="120.902" y="190.444" fill="#00f"/><path d="M146.016 184.684l8.367 7.347" stroke-width="1.2" stroke="#000" stroke-miterlimit="10" fill="none"/><path d="M154.383 192.03l8.363 7.35" stroke-width="1.2" stroke="#00f" stroke-miterlimit="10" fill="none"/><path d="M151.148 182.22l6.692 5.874" stroke-width="1.2" stroke="#000" stroke-miterlimit="10" fill="none"/><path d="M157.84 188.094l6.69 5.88" stroke-width="1.2" stroke="#00f" stroke-miterlimit="10" fill="none"/><path d="M154.824 164.234l-8.808 20.45" stroke-width="1.2" stroke="#000" stroke-miterlimit="10" fill="none"/><path d="M162.746 199.38l19.145-11.368" stroke-width="1.2" stroke="#00f" stroke-miterlimit="10" fill="none"/><path d="M159.746 193.88h7v11h-7zm0 0" fill="#fff"/><use xlink:href="#b" x="159.746" y="202.542" fill="#00f"/><path d="M181.89 188.012l-2.45-10.864" stroke-width="1.2" stroke="#00f" stroke-miterlimit="10" fill="none"/><path d="M179.44 177.148l-2.444-10.86" stroke-width="1.2" stroke="#000" stroke-miterlimit="10" fill="none"/><path d="M174.89 182.512h14v11h-14zm0 0" fill="#fff"/><g fill="#00f"><use xlink:href="#b" x="174.891" y="191.175"/><use xlink:href="#c" x="181.868" y="191.175"/></g><path d="M176.996 166.29l-22.172-2.056M174.293 171.3l-17.734-1.644M176.996 166.29l14.695-16.73M154.824 164.234l-13.308-17.85M141.516 146.383l-22.114 2.597M139.914 151.844l-17.69 2.078M191.69 149.56l21.833 4.362M194.898 144.86l17.47 3.488M184.55 128.47l7.14 21.09M213.523 153.922l14.696-16.727M228.22 137.195l-7.138-21.093M222.543 136.766l-5.71-16.875M228.22 137.195l21.835 4.36M221.082 116.102l-21.836-4.36M199.246 111.742L184.55 128.47M201.71 116.87l-11.753 13.384M184.55 128.47l-10.917-2.18" stroke-width="1.2" stroke="#000" stroke-miterlimit="10" fill="none"/><path d="M173.633 126.29l-10.918-2.18M162.715 124.11l-3.57-10.547" stroke-width="1.2" stroke="#f00" stroke-miterlimit="10" fill="none"/><path d="M159.145 113.563l-3.57-10.547" stroke-width="1.2" stroke="#000" stroke-miterlimit="10" fill="none"/><path d="M158.715 118.61h8v11h-8zm0 0" fill="#fff"/><use xlink:href="#d" x="158.715" y="127.272" fill="#f00"/><path d="M252.023 143.285l7.348-8.363" stroke-width="1.2" stroke="#000" stroke-miterlimit="10" fill="none"/><path d="M259.37 134.922l7.35-8.367" stroke-width="1.2" stroke="#f00" stroke-miterlimit="10" fill="none"/><path d="M248.086 139.828l7.348-8.363" stroke-width="1.2" stroke="#000" stroke-miterlimit="10" fill="none"/><path d="M255.434 131.465l7.347-8.367" stroke-width="1.2" stroke="#f00" stroke-miterlimit="10" fill="none"/><path d="M250.055 141.555l3.57 10.547" stroke-width="1.2" stroke="#000" stroke-miterlimit="10" fill="none"/><path d="M253.625 152.102l3.57 10.546" stroke-width="1.2" stroke="#f00" stroke-miterlimit="10" fill="none"/><path d="M260.75 119.328h8v11h-8zm0 0" fill="#fff"/><use xlink:href="#d" x="260.75" y="127.991" fill="#f00"/><path d="M252.195 155.148h11v15h-11zm0 0" fill="#fff"/><use xlink:href="#d" x="252.195" y="167.25" fill="#f00"/><use xlink:href="#e" x="259.537" y="162.367" fill="#f00"/></g></svg>
